X:1
T:Black And Blue
T:Black And Blue
C:Thomas , Harry  Brooks
Z:All Rights Reserved
L:1/8
M:2/2
K:C
V:1 treble nm="Piano" snm="Pno."
%%MIDI program 0
%%MIDI control 7 100
%%MIDI control 10 64
V:1
"Am" EABc- c4 |"Dm/A" FABc- c4 |"Am" EABc- c4 |"D9" ^FABc- c4 |"C/G" GAEG-"C#dim" G4- | %5
w: Cold emp- ty bed _|springs hard as lead, _|Pains in my head, _|feel like old Ned, _|What did I do _|
"G7/D" G>GA>G"Dm7" A2"G+9" A2 |"C""Cmaj7" E8 |"E9/B""E+7""E7" z8 |"Am" EABc- c4 |"Dm/A" FABc- c4 | %10
w: _ to be so black and|blue.?||No joys for me, _|no com- pa- ny, _|
"Am" EABc- c4 |"D9" ^FABc- c4 |"C/G" GAEG-"C#dim" G4- |"G7/D" G>GA>G"Ab7" _e2"G7" d2 |"C" c8- | %15
w: Ev- en the mouse _|ran from my house. _|All my life thru, _|_ I've been so black and|blue.|
 c2 z2 z4 |"Ab7" c3 _A-"G7" A3"Ab7" z | c3 _A-"G7" A3"Ab7" A |"C" c2"Cdim" =A2"C" G E2 G- | %19
w: _|I'm white _|in side, _ but|that don't help my case,|
"Eb7" G8 |"Ab7" c3 _A- A4 | c3 _A- A4 |"Am" c2"Am/G" c2"D7/F#" d2"F7" _e2 |"^E+7" =e4"E7" e4 | %24
w: _|'Cause I _|can't hide _|what is on my|face, ooh!|
"Am" EABc- c4 |"Dm/A" FABc- c4 |"Am" EABc- c4 |"D9" ^FABc- c4 |"C/G" GAEG-"C#dim" G4- | %29
w: I'm so for- lorn, _|life's just a thorn, _|My heart is torn, _|why was I born? _|What did I do _|
"G7/D" G>GA>G"Ab9" _e2"G9" d2 |"C""F7" c8- |"C" c6 z2 | %32
w: _ to be so black and|blue?||

